src/lib/packages/icons/src/assets/line/cloud-upload.svg

<svg width="24" height="24" viewBox="0 0 24 24" fill="none" xmlns="http://www.w3.org/2000/svg">
<path d="M21.75 11C21.75 13.727 19.8139 16.097 17.1479 16.635C17.0979 16.645 17.048 16.65 16.999 16.65C16.649 16.65 16.3369 16.404 16.2649 16.048C16.1829 15.642 16.4461 15.246 16.8521 15.165C18.8221 14.768 20.25 13.016 20.25 11C20.25 8.656 18.344 6.75 16 6.75C15.717 6.75 15.4449 6.77503 15.1689 6.82703C14.8639 6.88503 14.5551 6.74801 14.3931 6.48401C14.1011 6.01301 13.7301 5.57298 13.2891 5.17798C12.2511 4.25798 10.904 3.75 9.5 3.75C6.329 3.75 3.75 6.329 3.75 9.5C3.75 11.828 5.13906 13.911 7.28906 14.808C7.67106 14.967 7.85089 15.407 7.69189 15.789C7.53189 16.172 7.09094 16.351 6.71094 16.192C4.00094 15.062 2.25 12.435 2.25 9.5C2.25 5.502 5.502 2.25 9.5 2.25C11.271 2.25 12.9721 2.89202 14.2871 4.05902C14.7071 4.43502 15.0761 4.84401 15.3911 5.28101C15.5921 5.26001 15.794 5.25 16 5.25C19.171 5.25 21.75 7.829 21.75 11ZM12.531 10.47C12.462 10.401 12.3791 10.346 12.2871 10.308C12.1041 10.232 11.8971 10.232 11.7141 10.308C11.6221 10.346 11.539 10.401 11.47 10.47L9.46997 12.47C9.17697 12.763 9.17697 13.238 9.46997 13.531C9.76297 13.824 10.238 13.824 10.531 13.531L11.251 12.811V21C11.251 21.414 11.587 21.75 12.001 21.75C12.415 21.75 12.751 21.414 12.751 21V12.811L13.4709 13.531C13.6169 13.677 13.809 13.751 14.001 13.751C14.193 13.751 14.385 13.678 14.531 13.531C14.824 13.238 14.824 12.763 14.531 12.47L12.531 10.47Z" fill="currentColor"/>
</svg>

<svg xmlns="http://www.w3.org/2000/svg" width="24" height="24" fill="none"><path fill="currentColor" d="M21.75 11a5.762 5.762 0 0 1-4.602 5.635.75.75 0 0 1-.296-1.47A4.255 4.255 0 0 0 20.25 11 4.254 4.254 0 0 0 16 6.75a4.44 4.44 0 0 0-.831.077.747.747 0 0 1-.776-.343 6.015 6.015 0 0 0-1.104-1.306A5.706 5.706 0 0 0 9.5 3.75 5.756 5.756 0 0 0 3.75 9.5a5.737 5.737 0 0 0 3.54 5.308.75.75 0 0 1-.58 1.384A7.232 7.232 0 0 1 2.25 9.5c0-3.998 3.252-7.25 7.25-7.25 1.771 0 3.472.642 4.787 1.809.42.376.79.785 1.104 1.222A5.756 5.756 0 0 1 21.75 11Zm-9.219-.53a.749.749 0 0 0-.817-.162.75.75 0 0 0-.244.162l-2 2a.75.75 0 1 0 1.061 1.061l.72-.72V21a.75.75 0 0 0 1.5 0v-8.189l.72.72a.748.748 0 0 0 1.06 0 .75.75 0 0 0 0-1.061l-2-2Z"/></svg>
